Papirus/16x16/apps/xcom-2.svg

<svg width="16" height="16" version="1.1" xmlns="http://www.w3.org/2000/svg">
 <path d="m4.0001075-1.4e-4c-0.4460806 2.0977049e-4 -0.8380932 0.29580224-0.9609719 0.72460938l-2.0000717 7c-0.0926337 0.322797-0.017068 0.6705359 0.2011791 0.9257812l6.0002151 7.0000004c0.3991894 0.466332 1.1203962 0.466332 1.5195856 0l6.0002153-7.0000004c0.218247-0.2552452 0.293813-0.6029842 0.201179-0.9257812l-2.000071-7c-0.122879-0.42880732-0.514892-0.72439983-0.960973-0.72460938z" style="fill:#02c0f3"/>
 <path d="m8 6a8 5 0 0 0-6.8828125 2.4628906c0.034453 0.065774 0.073726 0.1298183 0.1230469 0.1875l6 7.0000004c0.1995947 0.233166 0.4796665 0.349609 0.7597656 0.349609s0.5601709-0.116443 0.7597656-0.349609l6.0000004-7.0000004c0.04932-0.057682 0.08859-0.1217264 0.123046-0.1875a8 5 0 0 0-6.882812-2.4628906z" style="fill:#2dd1fd"/>
 <path d="m8 1s-0.70875-0.014-1.44727 0.3555c-0.73851 0.3692-1.55273 1.3112-1.55273 2.6445h2c0-1 1-1 1-1s1 0 1 1c0 0.5278-0.1396 0.8229-0.40625 1.1562-0.26665 0.3334-0.69336 0.668-1.19336 1.043s-1.07329 0.7904-1.55664 1.3946c-0.48335 0.6041-0.84375 1.434-0.84375 2.4062v0.999999h6v-1.999999h-3.64844c0.0313-0.044 0.0187-0.1112 0.0547-0.1562 0.26665-0.3334 0.69336-0.668 1.19336-1.043s1.07329-0.7904 1.55664-1.3946c0.48335-0.6041 0.84375-1.434 0.84375-2.4062 0-1.3333-0.81422-2.2753-1.55273-2.6445-0.73853-0.3693-1.44728-0.3555-1.44728-0.3555z" style="fill-rule:evenodd;fill:#333333"/>
</svg>

<svg xmlns="http://www.w3.org/2000/svg" width="16" height="16" version="1.1">
 <path style="fill:#02c0f3" d="M 4.0001,0 C 3.554,2.0977e-4 3.162,0.2958 3.0391,0.72461 L 1.0391,7.7246 C 0.94647,8.0474 1.022,8.3951 1.2402,8.6504 L 7.2405,15.65 C 7.6396,16.117 8.3609,16.117 8.76,15.65 L 14.76,8.6504 C 14.979,8.3951 15.054,8.0474 14.961,7.7246 L 12.961,0.72461 C 12.838,0.2958 12.446,2.0955e-4 12,0 Z"/>
 <path style="fill:#2dd1fd" d="M 8,6.0001 A 8,5 0 0 0 1.1172,8.463 C 1.1516,8.5288 1.1909,8.5928 1.2402,8.6505 L 7.2402,15.65 C 7.4398,15.884 7.7199,16 8,16 8.2801,16 8.5602,15.884 8.7598,15.65 L 14.76,8.6505 C 14.809,8.5928 14.848,8.5288 14.883,8.463 A 8,5 0 0 0 8,6.0001 Z"/>
 <path style="fill:#333333" d="M 8,1.0001 C 8,1.0001 7.2912,0.98614 6.5527,1.3556 5.8142,1.7248 5,2.6668 5,4.0001 H 7 C 7,3.0001 8,3.0001 8,3.0001 8,3.0001 9,3.0001 9,4.0001 9,4.5279 8.8604,4.823 8.5937,5.1563 8.3271,5.4897 7.9004,5.8243 7.4004,6.1993 6.9004,6.5743 6.3271,6.9897 5.8437,7.5939 5.3604,8.198 5,9.0279 5,10 V 11 H 11 V 9.0001 H 7.3516 C 7.3829,8.9561 7.3703,8.8889 7.4063,8.8439 7.6729,8.5105 8.0996,8.1759 8.5996,7.8009 9.0996,7.4259 9.6729,7.0105 10.156,6.4063 10.64,5.8022 11,4.9723 11,4.0001 11,2.6668 10.186,1.7248 9.4473,1.3556 8.7087,0.98634 8,1.0001 8,1.0001 Z"/>
</svg>
